dist/assets/img/iconsfont/footer-location.svg

<svg width="11" height="17" viewBox="0 0 11 17" fill="none" xmlns="http://www.w3.org/2000/svg">
<path d="M5.5 0C2.4673 0 0 2.60071 0 5.7974C0 6.87745 0.283831 7.93148 0.820997 8.84592L5.18693 16.262C5.27056 16.4041 5.4179 16.4904 5.57636 16.4904C5.57758 16.4904 5.57877 16.4904 5.57999 16.4904C5.73983 16.489 5.88748 16.4001 5.96958 16.2555L10.2242 8.76759C10.7318 7.87248 11 6.8454 11 5.7974C11 2.60071 8.5327 0 5.5 0ZM9.43757 8.27153L5.56942 15.0792L1.6001 8.33685C1.15298 7.57571 0.910556 6.6976 0.910556 5.7974C0.910556 3.13349 2.97275 0.959791 5.5 0.959791C8.02725 0.959791 10.0864 3.13349 10.0864 5.7974C10.0864 6.6709 9.85994 7.52657 9.43757 8.27153Z" fill="white"/>
<path d="M5.50014 2.44336C3.8153 2.44336 2.44458 3.81328 2.44458 5.49713C2.44458 7.17022 3.793 8.5509 5.50014 8.5509C7.22832 8.5509 8.55569 7.15183 8.55569 5.49713C8.55569 3.81328 7.18497 2.44336 5.50014 2.44336ZM5.50014 7.53976C4.37104 7.53976 3.45631 6.62251 3.45631 5.49713C3.45631 4.37456 4.37691 3.4545 5.50014 3.4545C6.62336 3.4545 7.54057 4.37456 7.54057 5.49713C7.54057 6.60609 6.64712 7.53976 5.50014 7.53976Z" fill="white"/>
</svg>

<svg width="11" height="17" fill="none" xmlns="http://www.w3.org/2000/svg"><path d="M5.5 0C2.467 0 0 2.6 0 5.797c0 1.08.284 2.134.821 3.049l4.366 7.416a.454.454 0 00.39.228h.003a.454.454 0 00.39-.234l4.254-7.488A6.029 6.029 0 0011 5.798C11 2.6 8.533 0 5.5 0zm3.938 8.272l-3.869 6.807L1.6 8.337a5.02 5.02 0 01-.69-2.54C.91 3.133 2.974.96 5.5.96c2.527 0 4.586 2.173 4.586 4.837 0 .874-.226 1.73-.648 2.475z" fill="#fff"/><path d="M5.5 2.443a3.058 3.058 0 00-3.055 3.054A3.05 3.05 0 005.5 8.551a3.05 3.05 0 003.056-3.054A3.058 3.058 0 005.5 2.443zm0 5.097a2.045 2.045 0 01-2.044-2.043A2.05 2.05 0 015.5 3.455c1.123 0 2.04.92 2.04 2.042A2.04 2.04 0 015.5 7.54z" fill="#fff"/></svg>
